src/resources/restructuring-icon.svg

<svg fill="none" height="17" viewBox="0 0 16 17" width="16" xmlns="http://www.w3.org/2000/svg"><g fill="#bf925a"><path d="m5.58022 2.50075h2.0714c.44061 0 .44128-.66658 0-.66658h-2.0714c-.44061 0-.44128.66658 0 .66658z"/><path d="m15.9514 7.00113-1.7148-3.00095 1.7148-3.000615c.2189-.383285-.36-.712909-.5786-.330625l-1.7135 2.99795h-3.2319l-1.7131-2.99795c-.02906-.05108-.07115-.09354-.12197-.123049-.05082-.02951-.10856-.045013-.16733-.044929h-3.61853c-.05876-.000016-.11647.015517-.16728.045019-.05081.029503-.09291.071925-.12202.122959l-1.71345 2.99795h-2.473012c-.440611 0-.441277.66658 0 .66658h2.473012l1.61913 2.83364-1.71478 3.00099c-.02882.0503-.04399.1073-.04399.1653s.01517.115.04399.1653l1.71211 2.9959-1.50747 2.4987c-.2293.3803.34396.7199.57093.3443l1.51147-2.505h3.43056c.11965 0 .22997-.064.2893-.168l1.71343-2.9986h3.4246c.1196 0 .2299-.064.2893-.168l1.8094-3.16625c.0287-.05037.0438-.10737.0437-.16535 0-.05799-.0152-.11495-.044-.16527zm-10.95162-5.83359h3.23192l1.61845 2.83264-1.61845 2.83297h-3.23192l-1.6188-2.83297zm3.23225 11.99846h-3.23192l-1.61879-2.8326 1.61912-2.83367h3.23126l1.61879 2.83367zm5.42727-3.16659h-3.2319l-1.61878-2.83297 1.61848-2.83297h3.2319l1.6188 2.83297z"/><path d="m13.0791 8.66634h-2.0714c-.4406 0-.4413.66658 0 .66658h2.0714c.4406 0 .4413-.66658 0-.66658zm-7.80066-.3093-1.03454 1.81106c-.22064.3863.36162.711.57859.3307l1.03454-1.81113c.21897-.38295-.35995-.71291-.57859-.33063z"/></g></svg>

<svg width="16" height="17" viewBox="0 0 16 17" fill="none" xmlns="http://www.w3.org/2000/svg">
<g id="Group">
<path id="Vector" d="M5.58022 2.50075H7.65162C8.09223 2.50075 8.0929 1.83417 7.65162 1.83417H5.58022C5.13961 1.83417 5.13894 2.50075 5.58022 2.50075Z" fill="#BF925A"/>
<path id="Vector_2" d="M15.9514 7.00113L14.2366 4.00018L15.9514 0.999565C16.1703 0.61628 15.5914 0.286656 15.3728 0.66894L13.6593 3.66689H10.4274L8.7143 0.66894C8.68524 0.61786 8.64315 0.5754 8.59233 0.545891C8.54151 0.516381 8.48377 0.500878 8.425 0.500962H4.80647C4.74771 0.500946 4.69 0.516479 4.63919 0.545981C4.58838 0.575484 4.54628 0.617906 4.51717 0.66894L2.80372 3.66689H0.330708C-0.109903 3.66689 -0.110569 4.33347 0.330708 4.33347H2.80372L4.42285 7.16711L2.70807 10.1681C2.67925 10.2184 2.66408 10.2754 2.66408 10.3334C2.66408 10.3914 2.67925 10.4484 2.70807 10.4987L4.42018 13.4946L2.91271 15.9933C2.68341 16.3736 3.25667 16.7132 3.48364 16.3376L4.99511 13.8326H8.42567C8.54532 13.8326 8.65564 13.7686 8.71497 13.6646L10.4284 10.666H13.853C13.9726 10.666 14.0829 10.602 14.1423 10.498L15.9517 7.33175C15.9804 7.28138 15.9955 7.22438 15.9954 7.1664C15.9954 7.10841 15.9802 7.05145 15.9514 7.00113ZM4.99978 1.16754H8.2317L9.85015 4.00018L8.2317 6.83315H4.99978L3.38098 4.00018L4.99978 1.16754ZM8.23203 13.166H5.00011L3.38132 10.3334L5.00044 7.49973H8.2317L9.85049 10.3334L8.23203 13.166ZM13.6593 9.99941H10.4274L8.80862 7.16644L10.4271 4.33347H13.659L15.2778 7.16644L13.6593 9.99941Z" fill="#BF925A"/>
<path id="Vector_3" d="M13.0791 8.66634H11.0077C10.5671 8.66634 10.5664 9.33292 11.0077 9.33292H13.0791C13.5197 9.33292 13.5204 8.66634 13.0791 8.66634ZM5.27844 8.35704L4.2439 10.1681C4.02326 10.5544 4.60552 10.8791 4.82249 10.4988L5.85703 8.68767C6.076 8.30472 5.49708 7.97476 5.27844 8.35704Z" fill="#BF925A"/>
</g>
</svg>
